images/icons/puzzle.svg

<?xml version="1.0" encoding="UTF-8"?>
<svg xmlns="http://www.w3.org/2000/svg" xmlns:xlink="http://www.w3.org/1999/xlink" width="72px" height="73px" viewBox="0 0 72 72" version="1.1">
<defs>
<clipPath id="clip1">
  <path d="M 19 9 L 72 9 L 72 69 L 19 69 Z M 19 9 "/>
</clipPath>
<clipPath id="clip2">
  <path d="M 0 19.089844 L 53.117188 0.492188 L 71.921875 53.039062 L 18.800781 71.636719 Z M 0 19.089844 "/>
</clipPath>
<clipPath id="clip3">
  <path d="M 0 11 L 33 11 L 33 44 L 0 44 Z M 0 11 "/>
</clipPath>
<clipPath id="clip4">
  <path d="M 0 19.089844 L 53.117188 0.492188 L 71.921875 53.039062 L 18.800781 71.636719 Z M 0 19.089844 "/>
</clipPath>
</defs>
<g id="surface1">
<g clip-path="url(#clip1)" clip-rule="nonzero">
<g clip-path="url(#clip2)" clip-rule="nonzero">
<path style=" stroke:none;fill-rule:nonzero;fill:rgb(0%,0%,0%);fill-opacity:1;" d="M 55.367188 9.558594 L 34.121094 17 C 33.628906 17.171875 33.375 17.699219 33.546875 18.183594 L 36.367188 26.066406 C 36.542969 26.550781 37.078125 26.804688 37.566406 26.632812 C 37.660156 26.597656 37.75 26.550781 37.828125 26.488281 L 38.8125 25.730469 C 39.878906 24.917969 41.414062 25.113281 42.234375 26.171875 C 43.058594 27.226562 42.859375 28.746094 41.792969 29.558594 C 41.378906 29.871094 40.878906 30.046875 40.359375 30.058594 L 39.117188 30.082031 C 38.597656 30.09375 38.183594 30.515625 38.195312 31.03125 C 38.195312 31.128906 38.214844 31.226562 38.246094 31.320312 L 40.753906 38.328125 L 33.671875 40.808594 C 33.183594 40.980469 32.929688 41.511719 33.101562 41.992188 C 33.136719 42.085938 33.183594 42.175781 33.246094 42.253906 L 34.011719 43.226562 C 34.832031 44.28125 34.636719 45.796875 33.566406 46.613281 C 32.5 47.425781 30.964844 47.230469 30.140625 46.175781 C 29.824219 45.765625 29.648438 45.269531 29.636719 44.757812 L 29.613281 43.527344 C 29.601562 43.011719 29.175781 42.605469 28.65625 42.613281 C 28.554688 42.617188 28.457031 42.632812 28.359375 42.667969 L 20.394531 45.457031 C 19.902344 45.628906 19.648438 46.160156 19.820312 46.644531 L 27.34375 67.664062 C 27.515625 68.144531 28.050781 68.398438 28.539062 68.226562 L 71.035156 53.347656 C 71.523438 53.175781 71.78125 52.644531 71.605469 52.160156 L 56.566406 10.125 C 56.390625 9.640625 55.855469 9.386719 55.367188 9.558594 Z M 45.714844 52.046875 C 45.71875 52.148438 45.734375 52.246094 45.769531 52.339844 L 48.277344 59.347656 L 28.800781 66.167969 L 21.90625 46.898438 L 27.757812 44.847656 C 27.84375 47.207031 29.84375 49.054688 32.226562 48.972656 C 34.613281 48.890625 36.476562 46.910156 36.394531 44.550781 C 36.363281 43.675781 36.0625 42.828125 35.527344 42.128906 L 41.382812 40.078125 L 43.890625 47.085938 C 44.0625 47.570312 44.597656 47.820312 45.085938 47.648438 C 45.183594 47.617188 45.273438 47.570312 45.351562 47.507812 L 46.332031 46.75 C 47.402344 45.9375 48.933594 46.132812 49.757812 47.191406 C 50.578125 48.246094 50.382812 49.761719 49.3125 50.578125 C 48.902344 50.890625 48.398438 51.066406 47.882812 51.078125 L 46.636719 51.101562 C 46.117188 51.113281 45.707031 51.535156 45.714844 52.046875 Z M 69.523438 51.90625 L 50.046875 58.726562 L 47.972656 52.933594 C 50.359375 52.851562 52.226562 50.875 52.140625 48.515625 C 52.058594 46.15625 50.058594 44.3125 47.675781 44.394531 C 46.789062 44.421875 45.933594 44.722656 45.226562 45.25 L 43.152344 39.460938 L 50.234375 36.980469 C 50.722656 36.808594 50.980469 36.277344 50.804688 35.792969 C 50.773438 35.699219 50.722656 35.613281 50.660156 35.53125 L 49.898438 34.5625 C 49.074219 33.503906 49.273438 31.988281 50.339844 31.175781 C 51.410156 30.359375 52.941406 30.554688 53.765625 31.613281 C 54.082031 32.019531 54.257812 32.515625 54.273438 33.03125 L 54.292969 34.261719 C 54.304688 34.773438 54.734375 35.183594 55.25 35.171875 C 55.351562 35.171875 55.453125 35.152344 55.546875 35.121094 L 62.628906 32.640625 Z M 62.003906 30.886719 L 56.148438 32.9375 C 56.066406 30.578125 54.066406 28.734375 51.679688 28.816406 C 49.296875 28.898438 47.429688 30.875 47.511719 33.234375 C 47.542969 34.109375 47.847656 34.957031 48.378906 35.65625 L 42.527344 37.707031 L 40.453125 31.917969 C 41.824219 31.878906 43.09375 31.195312 43.867188 30.078125 C 45.238281 28.144531 44.761719 25.480469 42.808594 24.125 C 41.265625 23.054688 39.199219 23.097656 37.703125 24.230469 L 35.632812 18.441406 L 55.109375 11.621094 Z M 62.003906 30.886719 "/>
</g>
</g>
<g clip-path="url(#clip3)" clip-rule="nonzero">
<g clip-path="url(#clip4)" clip-rule="nonzero">
<path style=" stroke:none;fill-rule:nonzero;fill:rgb(0%,0%,0%);fill-opacity:1;" d="M 28.167969 17.714844 C 27.28125 17.746094 26.425781 18.046875 25.71875 18.574219 L 23.332031 11.90625 C 23.15625 11.421875 22.621094 11.167969 22.132812 11.339844 L 0.886719 18.78125 C 0.394531 18.953125 0.140625 19.484375 0.3125 19.96875 L 7.835938 40.984375 C 8.007812 41.46875 8.542969 41.722656 9.03125 41.550781 L 15.773438 39.191406 C 15.855469 41.550781 17.855469 43.394531 20.238281 43.3125 C 22.625 43.230469 24.492188 41.253906 24.40625 38.894531 C 24.375 38.019531 24.074219 37.171875 23.539062 36.472656 L 30.28125 34.113281 C 30.769531 33.941406 31.023438 33.410156 30.851562 32.925781 L 28.464844 26.257812 C 30.851562 26.175781 32.71875 24.199219 32.632812 21.839844 C 32.550781 19.480469 30.550781 17.632812 28.167969 17.714844 Z M 29.804688 23.902344 C 29.394531 24.214844 28.890625 24.390625 28.375 24.402344 L 27.128906 24.425781 C 26.609375 24.433594 26.199219 24.859375 26.207031 25.371094 C 26.210938 25.472656 26.226562 25.570312 26.261719 25.664062 L 28.769531 32.671875 L 21.6875 35.148438 C 21.195312 35.320312 20.941406 35.851562 21.113281 36.335938 C 21.148438 36.429688 21.195312 36.519531 21.257812 36.597656 L 22.023438 37.566406 C 22.847656 38.625 22.648438 40.140625 21.578125 40.953125 C 20.511719 41.769531 18.980469 41.574219 18.15625 40.515625 C 17.839844 40.109375 17.660156 39.613281 17.648438 39.097656 L 17.625 37.867188 C 17.617188 37.355469 17.1875 36.949219 16.667969 36.957031 C 16.570312 36.957031 16.46875 36.976562 16.375 37.011719 L 9.292969 39.488281 L 2.398438 20.222656 L 21.875 13.402344 L 24.382812 20.410156 C 24.554688 20.890625 25.089844 21.144531 25.582031 20.972656 C 25.675781 20.941406 25.765625 20.890625 25.84375 20.832031 L 26.824219 20.074219 C 27.894531 19.261719 29.425781 19.457031 30.25 20.511719 C 31.074219 21.570312 30.875 23.085938 29.804688 23.902344 Z M 29.804688 23.902344 "/>
</g>
</g>
</g>
</svg>

<svg xmlns="http://www.w3.org/2000/svg" width="72" height="73" viewBox="0 0 72 72"><defs><clipPath id="a"><path d="M19 9h53v60H19Zm0 0"/></clipPath><clipPath id="b"><path d="M0 19.09 53.117.492 71.922 53.04 18.8 71.637Zm0 0"/></clipPath><clipPath id="c"><path d="M0 11h33v33H0Zm0 0"/></clipPath><clipPath id="d"><path d="M0 19.09 53.117.492 71.922 53.04 18.8 71.637Zm0 0"/></clipPath></defs><g clip-path="url(#a)"><g clip-path="url(#b)"><path d="M55.367 9.559 34.121 17a.924.924 0 0 0-.574 1.184l2.82 7.882a.943.943 0 0 0 1.461.422l.984-.758a2.456 2.456 0 0 1 3.422.442 2.397 2.397 0 0 1-.441 3.387 2.47 2.47 0 0 1-1.434.5l-1.242.023a.934.934 0 0 0-.87 1.238l2.507 7.008-7.082 2.48a.926.926 0 0 0-.426 1.446l.766.973a2.398 2.398 0 0 1-.446 3.386 2.465 2.465 0 0 1-3.425-.437 2.411 2.411 0 0 1-.504-1.418l-.024-1.23a.937.937 0 0 0-1.254-.86l-7.964 2.789a.928.928 0 0 0-.575 1.188l7.524 21.02a.938.938 0 0 0 1.195.562l42.496-14.88a.926.926 0 0 0 .57-1.187L56.566 10.125a.943.943 0 0 0-1.199-.566Zm-9.652 42.488c.004.101.02.2.055.293l2.507 7.008-19.476 6.82-6.895-19.27 5.852-2.05c.086 2.359 2.086 4.207 4.469 4.125 2.386-.082 4.25-2.063 4.168-4.422a4.233 4.233 0 0 0-.868-2.422l5.856-2.05 2.508 7.007a.935.935 0 0 0 1.195.562.826.826 0 0 0 .266-.14l.98-.758a2.461 2.461 0 0 1 3.426.441 2.398 2.398 0 0 1-.446 3.387c-.41.313-.914.488-1.43.5l-1.245.024a.936.936 0 0 0-.922.945Zm23.808-.14-19.476 6.82-2.074-5.793c2.386-.082 4.254-2.059 4.168-4.418-.082-2.36-2.082-4.203-4.465-4.121a4.322 4.322 0 0 0-2.45.855l-2.074-5.79 7.082-2.48a.926.926 0 0 0 .426-1.449l-.762-.968a2.397 2.397 0 0 1 .442-3.387 2.457 2.457 0 0 1 3.426.437c.316.407.492.903.507 1.418l.02 1.23a.936.936 0 0 0 .957.91c.102 0 .203-.019.297-.05l7.082-2.48Zm-7.52-21.02-5.855 2.05c-.082-2.359-2.082-4.203-4.468-4.12-2.383.081-4.25 2.058-4.168 4.417.031.875.336 1.723.867 2.422l-5.852 2.051-2.074-5.789a4.299 4.299 0 0 0 3.414-1.84 4.245 4.245 0 0 0-1.058-5.953 4.358 4.358 0 0 0-5.106.105l-2.07-5.789 19.476-6.82Zm0 0" style="stroke:none;fill-rule:nonzero;fill:#000;fill-opacity:1"/></g></g><g clip-path="url(#c)"><g clip-path="url(#d)"><path d="M28.168 17.715a4.355 4.355 0 0 0-2.45.86l-2.386-6.669a.943.943 0 0 0-1.2-.566L.888 18.78a.928.928 0 0 0-.575 1.188l7.524 21.015a.937.937 0 0 0 1.195.567l6.742-2.36c.082 2.36 2.082 4.204 4.465 4.121 2.387-.082 4.254-2.058 4.168-4.417a4.233 4.233 0 0 0-.867-2.422l6.742-2.36a.929.929 0 0 0 .57-1.187l-2.386-6.668c2.387-.082 4.254-2.059 4.168-4.418-.082-2.36-2.082-4.207-4.465-4.125Zm1.637 6.187c-.41.313-.914.489-1.43.5l-1.246.024a.934.934 0 0 0-.922.945c.004.102.02.2.055.293l2.508 7.008-7.082 2.476a.928.928 0 0 0-.43 1.45l.765.968a2.394 2.394 0 0 1-.445 3.387 2.453 2.453 0 0 1-3.422-.437 2.397 2.397 0 0 1-.508-1.418l-.023-1.23a.934.934 0 0 0-1.25-.856l-7.082 2.476-6.895-19.265 19.477-6.82 2.508 7.007a.941.941 0 0 0 1.46.422l.981-.758a2.464 2.464 0 0 1 3.426.438 2.4 2.4 0 0 1-.445 3.39Zm0 0" style="stroke:none;fill-rule:nonzero;fill:#000;fill-opacity:1"/></g></g></svg>
